X: 26
T: Salisbury Assembly Minuet
%R: minuet, mazurka
B: Straight & Skillern "Minuets for the year 1777", p.26
F: http://www.vwml.org/browse/browse-collections-dance-tune-books/browse-straight1777
Z: 2014 John Chambers <jc:trillian.mit.edu>
N: Version for ABC software that doesn't understand voice overlays.
N: Bass line in bar 21 moved to the bass staff.
M: 3/4
L: 1/8
K: D
% - - - - - - - - - - - - - - - - - - - - - - - - - - - - -
% Voice 1 formatted for a US-letter/A4 page size.
V: 1
|:\
[dA2F2D2]>d d2 d2 | [ec2A2E2]>e e2 e2 |\
g>fe>dc>B | A2 TG2 F2 |\
[FD]>[FD] [F2D2] [E2C2] | [GE]>[GE] [G2E2] [F2D2] |\
A2 TG2 F2 | E>DE>F E2 |\
[dF]>[dF] [d2F2] [d2F2] | [eA]>[eA] [e2A2] [e2A2] |
[ge][fd][ec][dB][cA][BG] | [A2F2] [G2E2] [F2D2] |\
[FD]>[FD] [F2D2] [E2C2] | [GE]>[GE] [G2E2] [F2D2] |\
(3({c}BAG) [F2D2] [E2C2] | Hd6 :|\
|:\
Te6 | Te6 |\
fedcBA | T^G2 FG E2 |
a2 ^g2 f2 | e2 Td2 c2 |\
(3({g}fed) c2 B2 | A4 G2 |\
[FD]>[FD] [F2D2] [E2C2] | [GE]>[GE] [G2E2] [F2D2] |\
[A2D2] [G2C2] [F2D2] | EDEF E2 |\
[FD]>[FD] [F2D2] [E2C2] | [GE]>[GE] [G2E2] [F2D2] |\
A2 TG2 F2 | EDEF "D.C."E2 |]
% - - - - - - - - - - - - - - - - - - - - - - - - - - - - -
% Voice 2 preserves the original staff breaks.
V: 2 clef=bass middle=d
|:\
d2 f2 d2 | A2 c2 A2 | d6 | f2 e2 d2 |\
d4 A2 | A4 d2 | f2 e2 d2 | A6 | d6 | A6 |
d6 | a2 A2 d2 |\
d4 A2 | c4 d2 | g2 a2 A2 | Hd2 A2 D2 :|\
|:\
a2 c'2 a2 | ^g2 e2 g2 | a2 f2 d2 | e2 B2 E2 | f'2 e'2 d'2 |
c'2 b2 a2 | d2 e2 E2 | A2 c2 A2 |\
d4 A2 | A4 d2 | f2 e2 d2 | A6 |\
d4 A2 | A4 d2 | f2 e2 d2 | "D.C."A6 |]
% - - - - - - - - - - - - - - - - - - - - - - - - - - - - -

%%sep 1 1 500
%%sep 1 1 500
